client/src/styles/news.svg

<svg xmlns="http://www.w3.org/2000/svg" xml:space="preserve" style="fill-rule:evenodd;clip-rule:evenodd;stroke-linejoin:round;stroke-miterlimit:2" viewBox="0 0 500 500"><path d="M0 0h500v500H0z" style="fill:none"/><path d="M1715.83 223.75c79.17 0 143.75 64.583 143.75 143.75v1348.33c0 79.17-64.58 143.75-143.75 143.75H367.5c-79.167 0-143.75-64.58-143.75-143.75V367.5c0-79.167 64.583-143.75 143.75-143.75zm0-70.833H367.5c-118.75 0-214.583 96.25-214.583 214.583v1348.33c0 118.75 96.25 214.58 214.583 214.58h1348.33c118.75 0 214.58-96.25 214.58-214.58V367.5c0-118.75-95.83-214.583-214.58-214.583" style="fill:#566b8d;fill-rule:nonzero" transform="translate(.023 -.09)scale(.23992)"/><path d="M1338.79 1375.56h2.78l19 4.05 19-4.05 19 4.05 19.01-4.05v43.67h-229.8v-43.56l18.48 3.94 19-4.05 19.01 4.05 18.75-4 18.76 4 19-4.05 19.01 4.05zm-53.35 20.38h-73.63v18.76h73.63zm108.11 7.07h-83.31v4.63h83.31zm0-7.07h-83.31v4.63h83.31zm0-11.58h-181.74v7.2h181.74zm0 25.72h-83.31v4.62h83.31z" style="fill:#566b8d" transform="matrix(1.42206 0 0 6.66561 -1602.49 -9064.48)"/></svg>

<?xml version="1.0" encoding="UTF-8" standalone="no"?>
<!DOCTYPE svg PUBLIC "-//W3C//DTD SVG 1.1//EN" "http://www.w3.org/Graphics/SVG/1.1/DTD/svg11.dtd">
<svg width="100%" height="100%" viewBox="0 0 500 500" version="1.1" xmlns="http://www.w3.org/2000/svg" xmlns:xlink="http://www.w3.org/1999/xlink" xml:space="preserve" xmlns:serif="http://www.serif.com/" style="fill-rule:evenodd;clip-rule:evenodd;stroke-linejoin:round;stroke-miterlimit:2;">
    <g transform="matrix(1,0,0,1,-1110.56,-1270.64)">
        <g id="news" transform="matrix(1,0,0,1,1110.56,1270.64)">
            <rect x="0" y="0" width="500" height="500" style="fill:none;"/>
            <g>
                <g transform="matrix(0.239924,0,0,0.239924,0.0225514,-0.0898274)">
                    <path d="M1715.83,223.75C1795,223.75 1859.58,288.333 1859.58,367.5L1859.58,1715.83C1859.58,1795 1795,1859.58 1715.83,1859.58L367.5,1859.58C288.333,1859.58 223.75,1795 223.75,1715.83L223.75,367.5C223.75,288.333 288.333,223.75 367.5,223.75L1715.83,223.75M1715.83,152.917L367.5,152.917C248.75,152.917 152.917,249.167 152.917,367.5L152.917,1715.83C152.917,1834.58 249.167,1930.41 367.5,1930.41L1715.83,1930.41C1834.58,1930.41 1930.41,1834.16 1930.41,1715.83L1930.41,367.5C1930.41,248.75 1834.58,152.917 1715.83,152.917Z" style="fill:rgb(86,107,141);fill-rule:nonzero;"/>
                </g>
                <g transform="matrix(1.42206,0,0,6.66561,-1602.49,-9064.48)">
                    <path d="M1338.79,1375.56L1341.57,1375.56L1360.57,1379.61L1379.57,1375.56L1398.57,1379.61L1417.58,1375.56L1417.58,1419.23L1187.78,1419.23L1187.78,1375.67L1206.26,1379.61L1225.26,1375.56L1244.27,1379.61L1263.02,1375.61L1281.78,1379.61L1300.78,1375.56L1319.79,1379.61L1338.79,1375.56ZM1285.44,1395.94L1211.81,1395.94L1211.81,1414.7L1285.44,1414.7L1285.44,1395.94ZM1393.55,1403.01L1310.24,1403.01L1310.24,1407.64L1393.55,1407.64L1393.55,1403.01ZM1393.55,1395.94L1310.24,1395.94L1310.24,1400.57L1393.55,1400.57L1393.55,1395.94ZM1393.55,1384.36L1211.81,1384.36L1211.81,1391.56L1393.55,1391.56L1393.55,1384.36ZM1393.55,1410.08L1310.24,1410.08L1310.24,1414.7L1393.55,1414.7L1393.55,1410.08Z" style="fill:rgb(86,107,141);"/>
                </g>
            </g>
        </g>
    </g>
</svg>
